X:1
T:Irmelin
T:W. Peterson-Berger (1867-1942)
T:Irmelin
T:©CPDL Edition may be freely distributed, duplicated, performed and recorded PA Aglert
T:©CPDL Edition may be freely distributed, duplicated, performed and recorded PA Aglert
T:©CPDL Edition may be freely distributed, duplicated, performed and recorded PA Aglert
T:©CPDL Edition may be freely distributed, duplicated, performed and recorded PA Aglert
C:W. Peterson-Berger (1867-1942)
Z:J. P. Jacobsen (övers W. P.-B.)
Z:©CPDL Edition may be freely distributed, duplicated, performed and recorded
Z:PA Aglert
%%score [ 1 2 3 ( 4 5 ) ]
L:1/8
Q:3/8=88
M:6/8
K:Eb
V:1 treble nm="S"
V:2 treble nm="A"
V:3 treble-8 nm="T"
V:4 bass nm="B"
V:5 bass 
V:1
"^Con moto (quasi agitato)" z6 | z6 |!p!!<(! G3- G2 E | C2 E G2!<)! c |!>(! B6 | G3- G2!>)! z | %6
w: ||Se, * det|var en gång en|ko-|nung, *|
w: ||Men * hon|ra- ta- de dem|al-|la *|
w: ||Grannt * på|al- la rid- dar-|hjäl-|mar *|
w: ||Och * i|sto- ra floc- kar|dro-|go *|
 G3- G2 F | E2 E C2 E | D6- | D3 z2 z |!<(! G3- G2 E | C2 E G2 c!<)! |!>(! B6 | G3-!>)! G2 z | %14
w: mång- * en|skatt han nämn- de|sin.||Men * som|skö- nast av dem|al-|la, *|
w: 'hjär- * tat|var så kallt som|stål'||hån- * log|åt den e- nes|upp-|syn, *|
w: gläns- * te|hen- nes fär- gers|prakt||och * med|rim blev nam- net|flä-|tat, *|
w: fri- * a-|re till kung- ens|sal,||gil- * ja-|de med öm- ma|la-|ter, *|
!f! B3- B2 G | E2 G B2 e | e6 |!>(! e3 d2!>)! c |!mp! G3- G2 A |!>(! A3 G3!>)! | %20
w: ja, * som|skö- nsat av dem|al-|la städs be-|sjöng * man|Ir- me-|
w: hån- * log|åt den e- nes|upp-|syn, här- ma-|de * den|and- res|
w: och * med|rim blev nam- net|flä-|tat in i|tu- * sen|ryt- mers|
w: gil- * ja-|de med öm- ma|la-|ter och med|bloms- * ter-|fa- gert|
!p!"^cresc. molto" C6- | C3- C2 z ||[K:C] G3-"^subito"!p!!<(! G>AG!<)! | c3 e3 | e3- e>dc | %25
w: lin.||Ir- * me- lin|stjär- na,|Ir- * me- lin|
w: mål.|||||
w: takt.|||||
w: tal.|||||
!>(! A3- A2-!>)! G | G3- G>ED |!<(! C2 E A2!<)! c | (D3- D>ED) | G3- G2 z |!p!"^cresc." A3- A>GA | %31
w: sol, * *|Ir- * me- lin|allt, vad där är|däj- * * *|ligt. *|Ir- * me- lin|
w: ||||||
w: ||||||
w: ||||||
 c3 G3 | d3- d>cd | e6 |!f! e3- e>dc |!ff! g3-"^molto rit." !fermata!g>ec/E/ |!f!!>(! G6!>)! | %37
w: stjär- na.|Ir- * me- lin|sol,|Ir- * me- lin|allt, * vad där är|dej-|
w: ||||||
w: ||||||
w: ||||||
!p! C2"^a tempo" z z2 z | z2 F F2 F |!p! z2"^cresc." G G2 G | z2 G G2 G | z2 A A2 A | %42
w: ligt.|Som stjär- na|be- sjöngs hon,|som stjär- na|be- sjöngs hon,|
w: |||||
w: |||||
w: |||||
!f! z2 c c2 c | z2!>(! E-!>)! E2 z |!mf!!>(! G6!>)! |!p! C3- C z z |] %46
w: som sol, som|allt *|däj-|ligt. *|
w: ||||
w: ||||
w: ||||
V:2
!f!!>(! E2 E E2 E | E2 E E2 E!>)! |!p! E2 E E2 C | C2 C E3 | G2 G F2 D | B,2 E G2 E | D2 D D2 D | %7
w: Men hon ra- ta-|de dem al- la|'hjär- tat var så|kallt som stål',|men hon ra- ta-|de dem al- la|'hjär- tat var så|
w: Se, det var en|gång en ko- nung,|mång- en skatt han|nämn- de sin.|Se, det var en|gång en ko- nung,|mång- en skatt han|
w: Grannt på al- la|rid- dar- hjäl- mar|gläns- te hen- nes|fär- gers prakt,|grannt på al- la|rid- dar- hjäl- mar|gläns- te hen- nes|
w: Och i sto- ra|floc- kar dro- go|fri- a- re till|kung- ens sal,|och i sto- ra|floc- kar dro- go|fri- a- re till|
 C2 C C3 | =B,2 B, C2 C | =B,2 B, D2 D | E2 E E2 C | C2 C E3 | G2 G F2 D | B,2 E G2 E | %14
w: kallt som stål',|hån- log åt den|e- nes upp- syn,|här- ma- de den|and- res mål,|hån- log åt den|e- nes upp- syn,|
w: nämn- de sin.|Men som skö- nast|av dem al- la,|städs be- sjöng man|Ir- me- lin.|Ja, som skö- nast|av dem al- la,|
w: fär- gers prakt|och med rim blev|nam- net flä- tat|in i tu- sen|ryt- mers takt,|och med rim blev|nam- net flä- tat,|
w: kung- ens sal,|gil- ja- de med|öm- ma la- ter|och med bloms- ter-|fa- gert tal,|gil- ja- de med|öm- ma la- ter,|
!f! G3- G2 E | E2 E G2 G | A2 A A2 c |!>(! E2 E E2!>)! E |!mp! E6 |!>(! F3 F3!>)! | %20
w: hån- * log|åt den e- nes|upp- syn, här- ma-|de den and- res|mål,|här- ma-|
w: ja, * som|skö- nsat av dem|al- la städs be-|sjöng man Ir- me-|lin,|Ir- me-|
w: ja * med|rim blev nam- net|flä- tatin in i|tu- sen ryt- mers|takt,|ryt- mers|
w: gil- * ja-|de med öm- ma|la- ter och med|bloms- ter- fa- gert|tal,|fa- gert|
!p!"^cresc. molto" E2 E E2 E | E2 E E2 z ||[K:C] z2"^subito"!p! E E2 E | z2 E E2 E | z2 F F2 F | %25
w: de hon ock den|and- res mål.||||
w: lin, be- sjöng man|Ir- me- lin.|Som stjär- na|be- sjöngs hon,|som stjär- na,|
w: takt, i tu- sen|ryt- mers takt.||||
w: tal, med blom- ster-|fa- gert tal.||||
 z2 F F3 | z2 E E3 | z2 E E3 | z2 A, A,3 | z2 F F2 F |!p! z2"^cresc." F F2 F | z2 G G2 G | %32
w: |||||||
w: som sol,|som sol,|som allt,|vad där|är dej- ligt.|Som stjär- na|be- sjöngs hon,|
w: |||||||
w: |||||||
 z2 [FG] [FG]2 [FG] | z2 [EG] [EG]2 [EG] |!f! z2 [^Fc] [Fc]2 [Fc] |!ff! z2 [Gc]- !fermata![Gc]2 z | %36
w: ||||
w: som stjär- na|be- sjöngs hon,|som sol, som|allt *|
w: ||||
w: ||||
!f!!>(! E6!>)! |!p! C2 z z2 z | z2 C C2 C |!p! z2"^cresc." C C2 C | z2 F F2 F | z2 G G2 G | %42
w: ||||||
w: däj-|ligt.|Som stjär- na|be- sjöngs hon,|som stjär- na|be- sjöngs hon,|
w: ||||||
w: ||||||
!f! z2 ^F F2 F | z2!>(! c-!>)! c2 z |!mf!!>(! [B,E]6!>)! |!p! C3- C z z |] %46
w: ||||
w: som sol, som|allt *|däj-|ligt. *|
w: ||||
w: ||||
V:3
!f!!>(! G2 G G2 G | G2 G G2!>)! G |!p! G2 G G2 G | =A2 A A3 | e2 B !courtesy!_A2 F | E2 G B2 B | %6
w: Men hon ra- ta-|de dem al- la|'hjär- tat var så|kallt som stål',|men hon ra- ta-|de dem al- la|
w: Se, det var en|gång en ko- nung,|mång- en skatt han|nämn- de sin.|Se, det var en|gång en ko- nung,|
w: Grannt på al- la|rid- dar- hjäl- mar|gläns- te hen- nes|fär- gers prakt,|grannt på al- la|rid- dar- hjäl- mar|
w: Och i sto- ra|floc- kar dro- go|fri- a- re till|kung- ens sal,|och i sto- ra|floc- kar dro- go|
 A2 A A2 A | G2 G ^F3 | G2 G ^F2 F | G2 G =B2 B | c2 c G2 G | =A2 A A3 | e2 B !courtesy!_A2 F | %13
w: 'hjär- tat var så|kallt som stål',|hån- log åt den|e- nes upp- syn,|här- ma- de den|and- res mål,|hån- log åt den|
w: mång- en skatt han|nämn- de sin.|Men som skö- nast|av dem al- la,|städs be- sjöng man|Ir- me- lin.|Ja, som skö- nast|
w: gläns- te hen- nes|fär- gers prakt|och med rim blev|nam- net flä- tat|in i tu- sen|ryt- mers takt,|och med rim blev|
w: fri- a- re till|kung- ens sal,|gil- ja- de med|öm- ma la- ter|och med bloms- ter-|fa- gert tal,|gil- ja- de med|
 E2 G B2 B |!f! _d3- d2 d | _d2 d d2 d | c2 c c2 A |!>(! =A2 A A2!>)! A |!mp! c6 |!>(! c3 =B3!>)! | %20
w: e- nes upp- syn,|hån- * log|åt den e- nes|upp- syn, här- ma-|de den and- res|mål,|här- ma-|
w: av dem al- la,|ja, * som|skö- nsat av dem|al- la städs be-|sjöng man Ir- me-|lin,|Ir- me-|
w: nam- net flä- tat,|ja * med|rim blev nam- net|flä- tatin in i|tu- sen ryt- mers|takt,|ryt- mers|
w: öm- ma la- ter,|gil- * ja-|de med öm- ma|la- ter och med|bloms- ter- fa- gert|tal,|fa- gert|
!p!"^cresc. molto" c2 G G2 G | G2 G G2 z ||[K:C] z2"^subito"!p! G G2 G | z2 G G2 G | z2 A A2 A | %25
w: de hon ock den|and- res mål.||||
w: lin, be- sjöng man|Ir- me- lin.|Som stjär- na|be- sjöngs hon,|som stjär- na,|
w: takt, i tu- sen|ryt- mers takt.||||
w: tal, med blom- ster-|fa- gert tal.||||
 z2 B B3 | z2 G G3 | z2 c c3 | z2 c c3 | z2 B B2 B |!p! z2"^cresc." c c2 c | z2 c c2 c | %32
w: |||||||
w: som sol,|som sol,|som allt,|vad där|är dej- ligt.|Som stjär- na|be- sjöngs hon,|
w: |||||||
w: |||||||
 z2 G G2 G | z2 A A2 A |!f! z2 c c2 c |!ff! z2 e- !fermata!e2 z |!f!!>(! B6!>)! | %37
w: |||||
w: som stjär- na|be- sjöngs hon,|som sol, som|allt *|däj-|
w: |||||
w: |||||
!p! c2!mf! c{/d} cBc | A3 A>GA |!p! c3"^cresc." G3 | d3- d>cd | e6 |!f! e3- e>dc | g3- g>ec/E/ | %44
w: |||||||
w: ligt, allt däj- * ligt.|Ir- * me- lin|stjär- na,|Ir- * me- lin|sol.|Ir- * me- lin|allt, * vad där är|
w: |||||||
w: |||||||
!mf!!>(! G6!>)! |!p! c3- c z z |] %46
w: ||
w: dej-|ligt. *|
w: ||
w: ||
V:4
!f!!>(! C,2 C, C,2 C, | C,2 C, C,2!>)! C, |!p! C,2 C, C,2 C, | F,3 F,,3 | B,,6 | E,3- E,2 G, | %6
w: Och i sto- ra|floc- kar dro- go,|och i sto- ra|floc- kar|dro-|go, * de|
w: Men hon ra- ta-|de dem al- la,|men hon ra- ta-|de dem|al-|la * för|
w: Se, det var en|gång en ko- nung,|se, det var en|gång en|ko-|nung, * så|
w: Grannt på al- la|rid- dar- hjäl- mar,|grannt på al- la|rid- dar-|hjäl-|mar * gläns-|
 =B,,3- B,,2 B,, | C,3 D,3 | G,3 D,3 | G,,3 G,2 G, | C,2 C, C,2 C, | F,3 F,,3 | B,,3- B,,2 B,, | %13
w: fri- * a-|re till|kung- ens|sal, gil- ja-|de med öm- ma|la- ter,|gil- * ja-|
w: 'hjär- * tat|var så|kallt som|stål' hån- log|åt den e- nes|upp- syn,|hån- * log|
w: mång- * en|skatt han|nämn- de|sin. Men som|skö- nast av dem|al- la,|men * som|
w: te * hen-|nes fär-|gers prakt|och med rim|blev nam- net flä-|tat in,|och * med|
 E,2 E, E,2 G, |!f! E,2 E, E,2 E, | E,2 E, E,2 E, | A,,6 |!>(! ^F,,6!>)! |!mp! G,,2 G,, G,3- | %19
w: de med öm- ma|la- ter. gil- ja-|de med öm- ma|la-|ter,|och med bloms-|
w: åt den e- nes|upp- syn, hån- log|åt den e- nes|upp-|syn,|här- ma- de|
w: skö- nast av dem|al- la, ja, som|skö- nsat av dem|al-|la|städs be- sjöng|
w: rim blev nam- net|flä- tat, ja med|rim blev nam- net|flä-|tat|in i tu-|
!>(! G,2 G, G,2!>)! G, |!p!"^cresc. molto" C2 C, C,2 C, | C,2 C, C,2 z || %22
w: * ter- fa- gert|tal, med bloms- ter-|fa- gert tal.|
w: * den and- res|mål, hon ock den|and- res mål.|
w: * man Ir- me-|lin, be- sjöng man|Ir- me- lin.|
w: * sen ryt- mers|takt, i tu- sen|ryt- mers takt.|
[K:C] z2"^subito"!p! C, C,2 C, | z2 C, C,2 C, | z2 C, C,2 C, | z2 C, C,3 | z2 C, C,3 | %27
w: |||||
w: |||||
w: Som stjär- na|be- sjöngs hon,|som stjär- na,|som sol,|som sol,|
w: |||||
 z2 A,, A,,3 | z2 F, F,3 | z2 G, G,2 G, |!p! z2"^cresc." F, F,2 F, | z2 E, E,2 E, | %32
w: |||||
w: |||||
w: som allt,|vad där|är dej- ligt.|Som stjär- na|be- sjöngs hon,|
w: |||||
 z2 B,, B,,2 B,, | z2 ^C, C,2 C, |!f! z2 D, D,2 D, |!ff! z2 [G,,G,]- !fermata![G,,G,]2 z | %36
w: ||||
w: ||||
w: som stjär- na|be- sjöngs hon,|som sol, som|allt *|
w: ||||
!f!!>(! [G,,F,]6!>)! |!p! [C,E,]2 z z2 z | z2 F, F,2 F, |!p! z2"^cresc." E, E,2 E, | %40
w: ||||
w: ||||
w: däj-|ligt.|Som stjär- na|be- sjöngs hon,|
w: ||||
 z2 [B,,G,] [B,,G,]2 [B,,G,] | z2 [^C,A,] [C,A,]2 [C,A,] |!f! z2 [D,A,] [D,A,]2 [D,A,] | %43
w: |||
w: |||
w: som stjär- na|be- sjöngs hon,|som sol, som|
w: |||
 z2!>(! [G,,G,]-!>)! [G,,G,]2 z!mf! | (G,3!>(! F,3)!>)! |!p! [C,E,]3- [C,E,] z z |] %46
w: |||
w: |||
w: allt *|däj- *|ligt. *|
w: |||
V:5
 x6 | x6 | x6 | x6 | x6 | x6 | x6 | x6 | x6 | x6 | x6 | x6 | x6 | x6 | x6 | x6 | x6 | x6 | x6 | %19
 x6 | x6 | x6 ||[K:C] x6 | x6 | x6 | x6 | x6 | x6 | x6 | x6 | x6 | x6 | x6 | x6 | x6 | x6 | x6 | %37
 x6 | x6 | x6 | x6 | x6 | x6 | x6 | G,,6 | x6 |] %46

